src/assets/cards/2C.svg

<svg clip-rule="evenodd" fill-rule="evenodd" stroke-linejoin="round" stroke-miterlimit="2" viewBox="0 0 934 1300" xmlns="http://www.w3.org/2000/svg"><g fill-rule="nonzero"><path d="m35.663 194.713.69-8.417c2.12-25.992 7.815-34.773 40.091-61.894 15.668-13.159 20.811-19.657 21.526-27.196 2.045-17.75-13.962-23.294-24.386-23.382-13.51-.126-28.789 7.965-21.513 26.719l-15.154 4.453c-3.048-17.499.075-33.932 14.276-41.22 18.941-9.496 43.252-5.771 55.52 9.195 8.242 10.06 10.111 23.947 5.695 34.81-12.92 27.798-56.75 40.029-60.375 72.167h48.458v-17.888h14.276v32.941z"/><path d="m896.537 1105.29-.69 8.4c-2.12 26.01-7.815 34.79-40.091 61.91-15.668 13.16-20.811 19.64-21.539 27.18-2.045 17.75 13.974 23.3 24.399 23.4 13.51.12 28.789-7.97 21.501-26.74l15.153-4.44c3.061 17.5-.063 33.92-14.263 41.22-18.942 9.5-43.252 5.78-55.521-9.19-8.241-10.06-10.11-23.95-5.695-34.82 12.921-27.8 56.75-40.02 60.376-72.17h-48.459v17.9h-14.275v-32.94z"/><path d="m436.038 354.86c11.995-24.062 20.733-48.754 22.283-75.154 1.425-9.716-4.475-9.879-5.367-3.037-16.983 64.971-107.346 47.379-104.237-13.734 2.521-49.562 51.746-60.225 77.425-44.02 10.141 5.97 9.566 2.395 4.033-3.8-38.146-42.546-15.042-97.338 36.504-98.342 55.75 3.304 70.213 61.958 36.017 96.45-4.25 4.146-13.679 17.467.512 8.154 34.53-24.533 82.45 1.846 81.471 39.667-1.804 69.746-86.829 74.95-105.012 16.691-1.75-6.458-6.788-9.7-5.396 1.267 2.521 19.863 7.733 49.808 22.654 75.858z"/><path d="m497.296 945.14c-11.996 24.066-20.733 48.754-22.283 75.15-1.425 9.72 4.479 9.88 5.366 3.04 16.984-64.97 107.346-47.374 104.238 13.74-2.521 49.56-51.746 60.22-77.425 44.02-10.142-5.97-9.567-2.4-4.034 3.79 38.146 42.55 15.042 97.34-36.504 98.35-55.75-3.31-70.212-61.96-36.017-96.45 4.25-4.15 13.68-17.46-.512-8.15-34.529 24.53-82.45-1.85-81.471-39.67 1.804-69.75 86.829-74.95 105.013-16.7 1.75 6.46 6.787 9.71 5.396-1.26-2.521-19.87-7.734-49.81-22.655-75.86z"/><path d="m58.723 311.45c4.967-10.187 9.8-19.671 12.433-30.837 1.746-10.53-1.825-6.617-3.854.283-3.004 9.575-11.346 13.933-19.083 14.037-14.046.192-21.054-10.85-20.617-22.725-1.533-12.491 11.129-21.333 20.675-20.65 7.175.513 13.433 4.384 17.221 7.396 2.483 1.313 5.142 1.892 1.433-1.496-6.987-7.637-12.816-12.35-12.691-23.795.12-10.742 9.308-21.95 21.483-21.596 15.212.437 22.133 12.041 22.096 22.833-.042 7.871-3.971 15.108-10.046 19.596-3.938 3.192-2.833 5.583 1.654 2.562 4.313-3.716 9.446-5.345 14.771-5.458 14.546-.229 20.229 12.338 19.396 24.017-.779 10.941-10.096 22.2-22.371 20.925-10.958-1.254-16.721-10.459-20.021-19.904-1.092-2.896-2.817-3.675-2.767.637 2.53 21.075 10.38 34.188 10.438 34.175z"/><path d="m874.61 988.188c-4.966 10.187-9.8 19.672-12.433 30.832-1.75 10.54 1.825 6.63 3.854-.28 3.004-9.57 11.342-13.93 19.084-14.04 14.045-.18 21.054 10.85 20.616 22.73 1.534 12.49-11.129 21.33-20.675 20.65-7.175-.51-13.433-4.38-17.221-7.39-2.483-1.32-5.141-1.9-1.437 1.49 6.992 7.64 12.821 12.35 12.692 23.79-.121 10.75-9.305 21.95-21.48 21.61-15.216-.45-22.133-12.05-22.095-22.84.041-7.87 3.97-15.11 10.045-19.6 3.934-3.19 2.83-5.58-1.658-2.56-4.312 3.72-9.446 5.34-14.771 5.46-14.541.23-20.229-12.34-19.396-24.02.784-10.94 10.096-22.2 22.371-20.92 10.963 1.25 16.721 10.45 20.021 19.9 1.096 2.9 2.817 3.68 2.771-.64-2.533-21.07-10.383-34.185-10.438-34.172z"/></g></svg>

<?xml version="1.0" encoding="UTF-8" standalone="no"?>
<!DOCTYPE svg PUBLIC "-//W3C//DTD SVG 1.1//EN" "http://www.w3.org/Graphics/SVG/1.1/DTD/svg11.dtd">
<svg width="100%" height="100%" viewBox="0 0 934 1300" version="1.1" xmlns="http://www.w3.org/2000/svg" xmlns:xlink="http://www.w3.org/1999/xlink" xml:space="preserve" xmlns:serif="http://www.serif.com/" style="fill-rule:evenodd;clip-rule:evenodd;stroke-linejoin:round;stroke-miterlimit:2;">
    <g>
        <path d="M35.663,194.713L36.353,186.296C38.473,160.304 44.168,151.523 76.444,124.402C92.112,111.243 97.255,104.745 97.97,97.206C100.015,79.456 84.008,73.912 73.584,73.824C60.074,73.698 44.795,81.789 52.071,100.543L36.917,104.996C33.869,87.497 36.992,71.064 51.193,63.776C70.134,54.28 94.445,58.005 106.713,72.971C114.955,83.031 116.824,96.918 112.408,107.781C99.488,135.579 55.658,147.81 52.033,179.948L100.491,179.948L100.491,162.06L114.767,162.06L114.767,195.001L35.663,194.713Z" style="fill-rule:nonzero;"/>
        <path d="M896.537,1105.29L895.847,1113.69C893.727,1139.7 888.032,1148.48 855.756,1175.6C840.088,1188.76 834.945,1195.24 834.217,1202.78C832.172,1220.53 848.191,1226.08 858.616,1226.18C872.126,1226.3 887.405,1218.21 880.117,1199.44L895.27,1195C898.331,1212.5 895.207,1228.92 881.007,1236.22C862.065,1245.72 837.755,1242 825.486,1227.03C817.245,1216.97 815.376,1203.08 819.791,1192.21C832.712,1164.41 876.541,1152.19 880.167,1120.04L831.708,1120.04L831.708,1137.94L817.433,1137.94L817.433,1105L896.537,1105.29Z" style="fill-rule:nonzero;"/>
        <path d="M436.038,354.86C448.033,330.798 456.771,306.106 458.321,279.706C459.746,269.99 453.846,269.827 452.954,276.669C435.971,341.64 345.608,324.048 348.717,262.935C351.238,213.373 400.463,202.71 426.142,218.915C436.283,224.885 435.708,221.31 430.175,215.115C392.029,172.569 415.133,117.777 466.679,116.773C522.429,120.077 536.892,178.731 502.696,213.223C498.446,217.369 489.017,230.69 503.208,221.377C537.738,196.844 585.658,223.223 584.679,261.044C582.875,330.79 497.85,335.994 479.667,277.735C477.917,271.277 472.879,268.035 474.271,279.002C476.792,298.865 482.004,328.81 496.925,354.86L436.038,354.86Z" style="fill-rule:nonzero;"/>
        <path d="M497.296,945.14C485.3,969.206 476.563,993.894 475.013,1020.29C473.588,1030.01 479.492,1030.17 480.379,1023.33C497.363,958.36 587.725,975.956 584.617,1037.07C582.096,1086.63 532.871,1097.29 507.192,1081.09C497.05,1075.12 497.625,1078.69 503.158,1084.88C541.304,1127.43 518.2,1182.22 466.654,1183.23C410.904,1179.92 396.442,1121.27 430.637,1086.78C434.887,1082.63 444.317,1069.32 430.125,1078.63C395.596,1103.16 347.675,1076.78 348.654,1038.96C350.458,969.21 435.483,964.01 453.667,1022.26C455.417,1028.72 460.454,1031.97 459.063,1021C456.542,1001.13 451.329,971.19 436.408,945.14L497.296,945.14Z" style="fill-rule:nonzero;"/>
        <path d="M58.723,311.45C63.69,301.263 68.523,291.779 71.156,280.613C72.902,270.083 69.331,273.996 67.302,280.896C64.298,290.471 55.956,294.829 48.219,294.933C34.173,295.125 27.165,284.083 27.602,272.208C26.069,259.717 38.731,250.875 48.277,251.558C55.452,252.071 61.71,255.942 65.498,258.954C67.981,260.267 70.64,260.846 66.931,257.458C59.944,249.821 54.115,245.108 54.24,233.663C54.36,222.921 63.548,211.713 75.723,212.067C90.935,212.504 97.856,224.108 97.819,234.9C97.777,242.771 93.848,250.008 87.773,254.496C83.835,257.688 84.94,260.079 89.427,257.058C93.74,253.342 98.873,251.713 104.198,251.6C118.744,251.371 124.427,263.938 123.594,275.617C122.815,286.558 113.498,297.817 101.223,296.542C90.265,295.288 84.502,286.083 81.202,276.638C80.11,273.742 78.385,272.963 78.435,277.275C80.965,298.35 88.815,311.463 88.873,311.45L58.723,311.45Z" style="fill-rule:nonzero;"/>
        <path d="M874.61,988.188C869.644,998.375 864.81,1007.86 862.177,1019.02C860.427,1029.56 864.002,1025.65 866.031,1018.74C869.035,1009.17 877.373,1004.81 885.115,1004.7C899.16,1004.52 906.169,1015.55 905.731,1027.43C907.265,1039.92 894.602,1048.76 885.056,1048.08C877.881,1047.57 871.623,1043.7 867.835,1040.69C865.352,1039.37 862.694,1038.79 866.398,1042.18C873.39,1049.82 879.219,1054.53 879.09,1065.97C878.969,1076.72 869.785,1087.92 857.61,1087.58C842.394,1087.13 835.477,1075.53 835.515,1064.74C835.556,1056.87 839.485,1049.63 845.56,1045.14C849.494,1041.95 848.39,1039.56 843.902,1042.58C839.59,1046.3 834.456,1047.92 829.131,1048.04C814.59,1048.27 808.902,1035.7 809.735,1024.02C810.519,1013.08 819.831,1001.82 832.106,1003.1C843.069,1004.35 848.827,1013.55 852.127,1023C853.223,1025.9 854.944,1026.68 854.898,1022.36C852.365,1001.29 844.515,988.175 844.46,988.188L874.61,988.188Z" style="fill-rule:nonzero;"/>
    </g>
</svg>
